X:18983
T:Xiraldilla (CT 122)
R:Xiraldilla
C:Tradicional
S:Msica Tradicional Asturiana, (C) Tello & Tito. Asturies, 2001.
S:http://pagina.de/MusTradAst <telloytito@asturies.org>
N:Xiraldilla, transcrita en Cangas d'Ons.
O:Cangas d'Ons
A:Asturies
Z:Cancioneru de Torner 122
M:3/8
L:1/8
Q:3/8=80
W:Unos ojos negros vi
W:en una cara morena;
W:la vida me ha de costar
W:si no me caso con ella.
W:
W:Dame la mano,
W:paloma ma,
W:que yo no puedo
W:subir arriba.
K:G
G
|B2 B|ABc|d3-|d2 d|e2 e|gfe|(d>c)B-|B2 G|
B2 B|ABc|d3-|d2 d|e2 e|gfe|(d>c)B|
|dcd|B2 A-|A3|dcd|A2 G-|G3|
dcd|B2 A-|A3|dcd|A2 G-|G3||
